X: 4278
T: Bob's Hole In One
R: slip jig
M: 9/8
K: Gmajor
G3 GBA GED|A3 AB/c/d cBA|G3 GBA GED|EAE GAB GED|
GDG B2A GED|A3 AB/c/d cBA|G3 GBA GB/c/d|edB dBA GAB||
c2A BAG AGE|G3 G2E DEG|c2A BAG d2A|BAG G2D GAB|
c2A BAG AGE|G3 G2D GAB|d3 d2A BAG|AGE E2G cBA||

